X: 1
T: Tiger Cave
R: reel
M: 4/4
L: 1/8
K: Emin
BEcA BGDE|GEDB, A,B,G,A,|~E3F GFGA|B (3eee d gedc|
BEcA BGDE|GEDB, A,B,G,A,|B,EEB, GB,EB,|DB,B,D E2 z2:|
|:~A3B AGEG|ABcA dcAF|GBBG cGBG|AccA dAcA|
~A3B AGEG|ABcB d2 ef|gbbg c'gbg|1 edgf e2 z2:|2 edgf e2 c2||

